src/topics/icons/dependencyci.svg

<?xml version="1.0" encoding="UTF-8" standalone="no"?>
<svg width="256px" height="256px" viewBox="0 0 256 256" version="1.1" xmlns="http://www.w3.org/2000/svg" xmlns:xlink="http://www.w3.org/1999/xlink" preserveAspectRatio="xMidYMid">
	<g>
		<polygon fill="#1D6A80" points="0 255.829 256 255.829 256 85.921 0 85.921"></polygon>
		<polygon fill="#83C2C6" points="0 86.528 256 86.528 256 0 0 0"></polygon>
		<path d="M62.5494,90.1401 C58.7564,94.3071 55.0734,98.5401 51.9404,102.1861 C51.1854,103.0641 51.1224,104.3421 51.7854,105.2921 C55.0404,111.7291 60.1034,116.5931 63.8294,122.2541 C66.8164,128.6821 62.8624,134.9291 65.4894,139.4621 C67.9084,143.6391 71.8934,143.6581 77.9944,149.5891 C82.2074,154.9931 87.8084,169.0021 94.8904,181.4181 C98.9344,195.8971 102.9124,210.1731 104.8644,218.2271 C104.9274,218.4881 105.0474,218.7321 105.2164,218.9421 L114.8584,230.9121 C125.0564,230.0951 134.6974,229.1201 142.0804,227.4981 L148.6504,221.6961 L166.4004,219.9041 C171.4544,211.0051 175.1044,202.6661 179.2684,191.8231 C182.7844,183.5521 188.6314,176.2751 189.8874,169.4481 C190.8634,164.1371 188.3304,160.8531 187.7334,155.0501 C188.0764,151.9151 188.9394,148.0481 189.1844,143.2721 C189.3664,139.7301 188.6294,135.8081 188.2454,131.0721 L202.3254,125.9521 C203.5624,124.8851 203.8184,119.9781 204.4984,116.8731 C207.6504,107.3411 209.9754,99.2421 209.4934,96.0001 C202.1544,92.2021 196.5224,88.4051 190.8904,87.8081 L191.1464,86.8691 L190.7794,86.5281 L188.8424,85.9301 L66.0764,85.9301 L64.8024,86.5281 C64.1274,87.7281 63.3864,88.9461 62.5494,90.1401" fill="#5CCEEF"></path>
		<path d="M186.4533,83.8823 C184.4053,81.4933 182.9813,77.9213 180.3233,74.2173 C177.7423,70.6203 172.7243,63.9183 168.8323,58.3673 C165.2483,53.2563 162.9443,49.2793 162.0483,48.8953 L151.2103,50.6873 L149.4183,46.1653 L147.5413,46.6773 L140.3733,26.1113 C135.7633,24.3443 131.1553,23.1943 126.5493,22.5273 C121.8383,26.1903 116.2243,31.5443 110.8483,37.6603 C104.9603,45.1123 101.7453,48.9523 98.2183,51.9963 C94.6913,58.1973 91.3633,65.7913 88.9173,68.1813 C84.9543,69.1083 76.9933,74.4233 69.3133,78.5283 C69.1293,78.6263 68.9713,78.7643 68.8483,78.9323 C67.6203,80.9703 66.3963,83.6963 64.8033,86.5273 L190.7793,86.5273 L188.7573,84.6503 C188.0273,84.7263 187.3643,84.4393 186.4533,83.8823" fill="#FFFFFF"></path>
	</g>
</svg>

<svg height="256" preserveAspectRatio="xMidYMid" viewBox="0 0 256 256" width="256" xmlns="http://www.w3.org/2000/svg"><path d="m0 255.829h256v-169.908h-256z" fill="#1d6a80"/><path d="m0 86.528h256v-86.528h-256z" fill="#83c2c6"/><path d="m62.5494 90.1401c-3.793 4.167-7.476 8.4-10.609 12.046-.755.878-.818 2.156-.155 3.106 3.255 6.437 8.318 11.301 12.044 16.962 2.987 6.428-.967 12.675 1.66 17.208 2.419 4.177 6.404 4.196 12.505 10.127 4.213 5.404 9.814 19.413 16.896 31.829 4.044 14.479 8.022 28.755 9.974 36.809.063.261.183.505.352.715l9.642 11.97c10.198-.817 19.839-1.792 27.222-3.414l6.57-5.802 17.75-1.792c5.054-8.899 8.704-17.238 12.868-28.081 3.516-8.271 9.363-15.548 10.619-22.375.976-5.311-1.557-8.595-2.154-14.398.343-3.135 1.206-7.002 1.451-11.778.182-3.542-.555-7.464-.939-12.2l14.08-5.12c1.237-1.067 1.493-5.974 2.173-9.079 3.152-9.532 5.477-17.631 4.995-20.873-7.339-3.798-12.971-7.595-18.603-8.192l.256-.939-.367-.341-1.937-.598h-122.766l-1.274.598c-.675 1.2-1.416 2.418-2.253 3.612" fill="#5cceef"/><path d="m186.4533 83.8823c-2.048-2.389-3.472-5.961-6.13-9.665-2.581-3.597-7.599-10.299-11.491-15.85-3.584-5.111-5.888-9.088-6.784-9.472l-10.838 1.792-1.792-4.522-1.877.512-7.168-20.566c-4.61-1.767-9.218-2.917-13.824-3.584-4.711 3.663-10.325 9.017-15.701 15.133-5.888 7.452-9.103 11.292-12.63 14.336-3.527 6.201-6.855 13.795-9.301 16.185-3.963.927-11.924 6.242-19.604 10.347-.184.098-.342.236-.465.404-1.228 2.038-2.452 4.764-4.045 7.595h125.976l-2.022-1.877c-.73.076-1.393-.211-2.304-.768" fill="#fff"/></svg>
